img/svg-icons/dumbell.svg

<svg xmlns="http://www.w3.org/2000/svg" id="dumbell" viewBox="0 0 65 31.51"><path d="M65 10.78h-7V0h-9.91v10.78H16.91V0H7v10.78H0v9.78h7v11h10v-11h31.09v11H58v-11h7v-9.78zm-62 6.8v-3.82h4v3.81H3zm10.93 10.94h-4V3h4v25.52zm3-10.94v-3.82h31.16v3.81H16.93zM55 28.52h-4V3h4v25.52zm7-10.94h-4v-3.82h4v3.81z"/></svg>

<svg id="dumbell" xmlns="http://www.w3.org/2000/svg" width="65" height="31.51" viewBox="0 0 65 31.51"><title>dumbell</title><path d="M65,10.78H58V0H48.09V10.78H16.91V0H7V10.78H0v9.78H7v11H17v-11H48.09v11H58v-11h7V10.78ZM3,17.58V13.76H7v3.81H3ZM13.93,28.52h-4V3h4V28.52Zm3-10.94V13.76H48.09v3.81H16.93ZM55,28.52H51V3h4V28.52Zm7-10.94H58V13.76h4v3.81h0Z"  /></svg>
